src/cmd/32/selectdata.svg

<?xml version="1.0" encoding="UTF-8" standalone="no"?>
<svg
   xmlns:dc="http://purl.org/dc/elements/1.1/"
   xmlns:cc="http://creativecommons.org/ns#"
   xmlns:rdf="http://www.w3.org/1999/02/22-rdf-syntax-ns#"
   xmlns:svg="http://www.w3.org/2000/svg"
   xmlns="http://www.w3.org/2000/svg"
   xmlns:sodipodi="http://sodipodi.sourceforge.net/DTD/sodipodi-0.dtd"
   xmlns:inkscape="http://www.inkscape.org/namespaces/inkscape"
   viewBox="0 0 32 32"
   version="1.1"
   id="svg4"
   sodipodi:docname="selectdata.svg"
   inkscape:export-filename="/home/jupiter007/Libreoffice yaru theme fullcolor/build/cmd/32/selectdata.png"
   inkscape:export-xdpi="95"
   inkscape:export-ydpi="95"
   inkscape:version="0.92.5 (2060ec1f9f, 2020-04-08)">
  <metadata
     id="metadata10">
    <rdf:RDF>
      <cc:Work
         rdf:about="">
        <dc:format>image/svg+xml</dc:format>
        <dc:type
           rdf:resource="http://purl.org/dc/dcmitype/StillImage" />
      </cc:Work>
    </rdf:RDF>
  </metadata>
  <defs
     id="defs8" />
  <sodipodi:namedview
     pagecolor="#ffffff"
     bordercolor="#666666"
     borderopacity="1"
     objecttolerance="10"
     gridtolerance="10"
     guidetolerance="10"
     inkscape:pageopacity="0"
     inkscape:pageshadow="2"
     inkscape:window-width="1920"
     inkscape:window-height="1011"
     id="namedview6"
     showgrid="false"
     inkscape:zoom="20.85965"
     inkscape:cx="13.67548"
     inkscape:cy="9.5488591"
     inkscape:window-x="0"
     inkscape:window-y="32"
     inkscape:window-maximized="1"
     inkscape:current-layer="svg4" />
  <path
     style="fill:#f2cbf8;fill-opacity:1;stroke-width:0.95833331"
     id="path817"
     d="M 16,4.5 C 9.648726,4.5 4.5,5.787182 4.5,7.375 v 5.75 5.75 5.75 c 0,1.587818 5.148726,2.875 11.5,2.875 6.351275,0 11.5,-1.287182 11.5,-2.875 V 7.375 C 27.5,5.787182 22.351275,4.5 16,4.5 Z"
     inkscape:connector-curvature="0"
     sodipodi:nodetypes="ssccsssss" />
  <path
     inkscape:connector-curvature="0"
     d="M 16,4 A 12,3 0 0 0 4,7 v 6 6 6 a 12,3 0 0 0 12,3 12,3 0 0 0 12,-3 V 7 A 12,3 0 0 0 16,4 Z m 0,1 A 11,2 0 0 1 27,7 11,2 0 0 1 16,9 11,2 0 0 1 5,7 11,2 0 0 1 16,5 Z M 27,8.191407 V 13 A 11,2 0 0 1 16,15 11,2 0 0 1 5,13 V 8.195313 A 12,3 0 0 0 16,10 12,3 0 0 0 27,8.191407 Z m 0,5.999999 V 19 A 11,2 0 0 1 16,21 11,2 0 0 1 5,19 V 14.195312 A 12,3 0 0 0 16,16 12,3 0 0 0 27,14.191406 Z m 0,6 V 25 A 11,2 0 0 1 16,27 11,2 0 0 1 5,25 V 20.195312 A 12,3 0 0 0 16,22 12,3 0 0 0 27,20.191406 Z"
     id="path2"
     style="fill:#8e03a3;fill-opacity:1" />
  <path
     style="fill:#ffffff;fill-opacity:1;stroke:#ffffff;stroke-width:2;stroke-linejoin:round;stroke-miterlimit:4;stroke-dasharray:none"
     id="path856"
     d="m 19.0002,17.000185 v 14 l 4,-5 h 7 z"
     inkscape:connector-curvature="0"
     sodipodi:nodetypes="ccccc" />
  <path
     inkscape:connector-curvature="0"
     style="opacity:0;fill:#ffffff;fill-opacity:1;stroke:#ffffff;stroke-width:2;stroke-linejoin:round;stroke-miterlimit:4;stroke-dasharray:none"
     id="path854"
     d="m 19.0002,17.000185 v 14 l 4,-5 h 8 z" />
  <path
     d="m 19.0002,17.000185 v 14 l 4,-5 h 7 z"
     id="path4"
     style="fill:#232629;fill-opacity:1;stroke-width:1.43181801"
     inkscape:connector-curvature="0"
     sodipodi:nodetypes="ccccc" />
</svg>

<svg viewBox="0 0 32 32" xmlns="http://www.w3.org/2000/svg"><path d="m16 4a12 3 0 0 0 -12 3v6 6 6a12 3 0 0 0 12 3 12 3 0 0 0 12-3v-18a12 3 0 0 0 -12-3zm0 1a11 2 0 0 1 11 2 11 2 0 0 1 -11 2 11 2 0 0 1 -11-2 11 2 0 0 1 11-2zm11 3.1914062v4.8085938a11 2 0 0 1 -11 2 11 2 0 0 1 -11-2v-4.8046875a12 3 0 0 0 11 1.8046875 12 3 0 0 0 11-1.8085938zm0 5.9999998v4.808594a11 2 0 0 1 -11 2 11 2 0 0 1 -11-2v-4.804688a12 3 0 0 0 11 1.804688 12 3 0 0 0 11-1.808594zm0 6v4.808594a11 2 0 0 1 -11 2 11 2 0 0 1 -11-2v-4.804688a12 3 0 0 0 11 1.804688 12 3 0 0 0 11-1.808594z" fill="#762572"/></svg>
